dist/svgs/unicons/line/comment-alt-plus.svg

<svg xmlns="http://www.w3.org/2000/svg" viewBox="0 0 24 24"><path d="M15 9h-2V7a1 1 0 00-2 0v2H9a1 1 0 000 2h2v2a1 1 0 002 0v-2h2a1 1 0 000-2zm4-7H5a3 3 0 00-3 3v10a3 3 0 003 3h11.59l3.7 3.71A1 1 0 0021 22a.84.84 0 00.38-.08A1 1 0 0022 21V5a3 3 0 00-3-3zm1 16.59l-2.29-2.3A1 1 0 0017 16H5a1 1 0 01-1-1V5a1 1 0 011-1h14a1 1 0 011 1z"/></svg>

<svg xmlns="http://www.w3.org/2000/svg" viewBox="0 0 24 24"><path d="M15,9H13V7a1,1,0,0,0-2,0V9H9a1,1,0,0,0,0,2h2v2a1,1,0,0,0,2,0V11h2a1,1,0,0,0,0-2Zm4-7H5A3,3,0,0,0,2,5V15a3,3,0,0,0,3,3H16.59l3.7,3.71A1,1,0,0,0,21,22a.84.84,0,0,0,.38-.08A1,1,0,0,0,22,21V5A3,3,0,0,0,19,2Zm1,16.59-2.29-2.3A1,1,0,0,0,17,16H5a1,1,0,0,1-1-1V5A1,1,0,0,1,5,4H19a1,1,0,0,1,1,1Z"/></svg>
